flags/other/earth.svg

<svg width="512" height="512" viewBox="0 0 512 512" fill="none" xmlns="http://www.w3.org/2000/svg">
<rect width="512" height="512" fill="var(--flag-palette-blue, #0052b4)"/>
<path d="M302.7 233.699C276.168 234.869 251.11 246.231 232.749 265.42C214.388 284.608 204.14 310.141 204.14 336.699C204.14 363.257 214.388 388.791 232.749 407.979C251.11 427.167 276.168 438.53 302.7 439.699C329.232 438.53 354.289 427.167 372.651 407.979C391.012 388.791 401.26 363.257 401.26 336.699C401.26 310.141 391.012 284.608 372.651 265.42C354.289 246.231 329.232 234.869 302.7 233.699ZM302.7 253.699C348.7 253.699 385.7 290.699 385.7 336.699C385.7 382.699 348.7 419.699 302.7 419.699C256.7 419.699 219.7 382.699 219.7 336.699C219.7 290.699 256.7 253.699 302.7 253.699Z" fill="var(--flag-palette-white, #eeeeee)"/>
<path d="M209.4 72.3008C182.868 73.4702 157.81 84.833 139.449 104.021C121.088 123.209 110.84 148.743 110.84 175.301C110.84 201.859 121.088 227.392 139.449 246.58C157.81 265.769 182.868 277.131 209.4 278.301C235.932 277.131 260.99 265.769 279.351 246.58C297.712 227.392 307.96 201.859 307.96 175.301C307.96 148.743 297.712 123.209 279.351 104.021C260.99 84.833 235.932 73.4702 209.4 72.3008ZM209.4 92.3008C255.4 92.3008 292.4 129.301 292.4 175.301C292.4 221.301 255.4 258.301 209.4 258.301C163.4 258.301 126.4 221.301 126.4 175.301C126.4 129.301 163.4 92.3008 209.4 92.3008Z" fill="var(--flag-palette-white, #eeeeee)"/>
<path d="M302.7 72.3008C276.168 73.4702 251.11 84.833 232.749 104.021C214.388 123.209 204.14 148.743 204.14 175.301C204.14 201.859 214.388 227.392 232.749 246.58C251.11 265.769 276.168 277.131 302.7 278.301C329.232 277.131 354.289 265.769 372.651 246.58C391.012 227.392 401.26 201.859 401.26 175.301C401.26 148.743 391.012 123.209 372.651 104.021C354.289 84.833 329.232 73.4702 302.7 72.3008ZM302.7 92.3008C348.7 92.3008 385.7 129.301 385.7 175.301C385.7 221.301 348.7 258.301 302.7 258.301C256.7 258.301 219.7 221.301 219.7 175.301C219.7 129.301 256.7 92.3008 302.7 92.3008Z" fill="var(--flag-palette-white, #eeeeee)"/>
<path d="M349.2 153C322.668 154.169 297.61 165.532 279.249 184.72C260.888 203.909 250.64 229.442 250.64 256C250.64 282.558 260.888 308.091 279.249 327.28C297.61 346.468 322.668 357.831 349.2 359C375.732 357.831 400.789 346.468 419.151 327.28C437.512 308.091 447.76 282.558 447.76 256C447.76 229.442 437.512 203.909 419.151 184.72C400.789 165.532 375.732 154.169 349.2 153ZM349.2 173C395.2 173 432.2 210 432.2 256C432.2 302 395.2 339 349.2 339C303.2 339 266.2 302 266.2 256C266.2 210 303.2 173 349.2 173Z" fill="var(--flag-palette-white, #eeeeee)"/>
<path d="M209.4 233.699C182.868 234.869 157.81 246.231 139.449 265.42C121.088 284.608 110.84 310.141 110.84 336.699C110.84 363.257 121.088 388.791 139.449 407.979C157.81 427.167 182.868 438.53 209.4 439.699C235.932 438.53 260.99 427.167 279.351 407.979C297.712 388.791 307.96 363.257 307.96 336.699C307.96 310.141 297.712 284.608 279.351 265.42C260.99 246.231 235.932 234.869 209.4 233.699ZM209.4 253.699C255.4 253.699 292.4 290.699 292.4 336.699C292.4 382.699 255.4 419.699 209.4 419.699C163.4 419.699 126.4 382.699 126.4 336.699C126.4 290.699 163.4 253.699 209.4 253.699Z" fill="var(--flag-palette-white, #eeeeee)"/>
<path d="M162.8 153C136.268 154.169 111.211 165.532 92.8494 184.72C74.4883 203.909 64.2399 229.442 64.2399 256C64.2399 282.558 74.4883 308.091 92.8494 327.28C111.211 346.468 136.268 357.831 162.8 359C189.332 357.831 214.39 346.468 232.751 327.28C251.112 308.091 261.36 282.558 261.36 256C261.36 229.442 251.112 203.909 232.751 184.72C214.39 165.532 189.332 154.169 162.8 153ZM162.8 173C208.8 173 245.8 210 245.8 256C245.8 302 208.8 339 162.8 339C116.8 339 79.8 302 79.8 256C79.8 210 116.8 173 162.8 173Z" fill="var(--flag-palette-white, #eeeeee)"/>
<path d="M256 153.1C229.468 154.269 204.41 165.632 186.049 184.82C167.688 204.008 157.44 229.542 157.44 256.1C157.44 282.657 167.688 308.191 186.049 327.379C204.41 346.567 229.468 357.93 256 359.1C282.532 357.93 307.59 346.567 325.951 327.379C344.312 308.191 354.56 282.657 354.56 256.1C354.56 229.542 344.312 204.008 325.951 184.82C307.59 165.632 282.532 154.269 256 153.1ZM256 173.1C302 173.1 339 210.1 339 256.1C339 302 302 339.1 256 339.1C210 339.1 173 302 173 256.1C173 210.1 210 173.1 256 173.1Z" fill="var(--flag-palette-white, #eeeeee)"/>
</svg>

<svg xmlns="http://www.w3.org/2000/svg" width="512" height="512" fill="none"><path fill="var(--flag-palette-blue, #0052b4)" d="M0 0h512v512H0z"/><path fill="var(--flag-palette-white, #eeeeee)" d="M302.7 233.7a103.1 103.1 0 0 0 0 206 103.1 103.1 0 0 0 0-206m0 20c46 0 83 37 83 83s-37 83-83 83-83-37-83-83 37-83 83-83"/><path fill="var(--flag-palette-white, #eeeeee)" d="M209.4 72.3a103.1 103.1 0 0 0 0 206 103.1 103.1 0 0 0 0-206m0 20c46 0 83 37 83 83s-37 83-83 83-83-37-83-83 37-83 83-83"/><path fill="var(--flag-palette-white, #eeeeee)" d="M302.7 72.3a103.1 103.1 0 0 0 0 206 103.1 103.1 0 0 0 0-206m0 20c46 0 83 37 83 83s-37 83-83 83-83-37-83-83 37-83 83-83"/><path fill="var(--flag-palette-white, #eeeeee)" d="M349.2 153a103.1 103.1 0 0 0 0 206 103.1 103.1 0 0 0 0-206m0 20c46 0 83 37 83 83s-37 83-83 83-83-37-83-83 37-83 83-83"/><path fill="var(--flag-palette-white, #eeeeee)" d="M209.4 233.7a103.1 103.1 0 0 0 0 206 103.1 103.1 0 0 0 0-206m0 20c46 0 83 37 83 83s-37 83-83 83-83-37-83-83 37-83 83-83"/><path fill="var(--flag-palette-white, #eeeeee)" d="M162.8 153a103.1 103.1 0 0 0 0 206 103.1 103.1 0 0 0 0-206m0 20c46 0 83 37 83 83s-37 83-83 83-83-37-83-83 37-83 83-83"/><path fill="var(--flag-palette-white, #eeeeee)" d="M256 153.1a103.1 103.1 0 0 0 0 206 103.1 103.1 0 0 0 0-206m0 20c46 0 83 37 83 83 0 45.9-37 83-83 83s-83-37.1-83-83c0-46 37-83 83-83"/></svg>
